app/static/svg/logos/logo-white.svg

<?xml version="1.0" encoding="UTF-8" standalone="no"?>
<svg
   xmlns:dc="http://purl.org/dc/elements/1.1/"
   xmlns:cc="http://creativecommons.org/ns#"
   xmlns:rdf="http://www.w3.org/1999/02/22-rdf-syntax-ns#"
   xmlns:svg="http://www.w3.org/2000/svg"
   xmlns="http://www.w3.org/2000/svg"
   xmlns:sodipodi="http://sodipodi.sourceforge.net/DTD/sodipodi-0.dtd"
   xmlns:inkscape="http://www.inkscape.org/namespaces/inkscape"
   version="1.1"
   id="Layer_1"
   x="0px"
   y="0px"
   viewBox="0 0 230.00001 46.1"
   xml:space="preserve"
   sodipodi:docname="logo-white.svg"
   inkscape:version="1.0.1 (0767f8302a, 2020-10-17)"
   width="230"
   height="46.099998"><metadata
   id="metadata1587"><rdf:RDF><cc:Work
       rdf:about=""><dc:format>image/svg+xml</dc:format><dc:type
         rdf:resource="http://purl.org/dc/dcmitype/StillImage" /><dc:title></dc:title></cc:Work></rdf:RDF></metadata><defs
   id="defs1585" /><sodipodi:namedview
   inkscape:document-rotation="0"
   pagecolor="#ffffff"
   bordercolor="#666666"
   borderopacity="1"
   objecttolerance="10"
   gridtolerance="10"
   guidetolerance="10"
   inkscape:pageopacity="0"
   inkscape:pageshadow="2"
   inkscape:window-width="1862"
   inkscape:window-height="1016"
   id="namedview1583"
   showgrid="false"
   inkscape:zoom="3.9767594"
   inkscape:cx="91.244695"
   inkscape:cy="2.2038648"
   inkscape:window-x="0"
   inkscape:window-y="27"
   inkscape:window-maximized="1"
   inkscape:current-layer="Layer_1" />
<style
   type="text/css"
   id="style1562">
	.st0{fill:#FFFFFF;}
	.st1{opacity:0.65;fill:#E1E4EA;enable-background:new    ;}
	.st2{opacity:0.5;fill:#FFFFFF;enable-background:new    ;}
	.st3{opacity:0.7;fill:#FFFFFF;enable-background:new    ;}
	.st4{fill:#377DFF;}
</style>





<path
   class="st1"
   d="m 23,41.1 v 0 c -9.9,0 -18,-8 -18,-18 v 0 c 0,-9.9 8,-18 18,-18 h 11.3 c 3.7,0 6.6,3 6.6,6.6 v 11.4 c 0.1,9.9 -8,18 -17.9,18 z"
   id="path1574" />
<path
   class="st2"
   d="m 28,36 v 0 C 18.1,36 10,28 10,18 v 0 C 10,8.1 18,0 28,0 H 39.3 C 43,0.1 46,3.1 46,6.7 V 18.1 C 46,28 38,36 28,36 Z"
   id="path1576" />
<path
   class="st3"
   d="m 18,46.1 v 0 c -10,0 -18,-8 -18,-18 v 0 c 0,-9.9 8,-18 18,-18 h 11.3 c 3.7,0 6.6,3 6.6,6.6 v 11.4 c 0,10 -8,18 -17.9,18 z"
   id="path1578" />

<path
   id="path75"
   d="m 30.396128,18.121325 q 0.514142,0.607623 0.140221,1.729385 -0.373921,1.121764 -1.261984,2.009828 l -1.881292,1.881291 1.869607,8.132783 q 0.05842,0.222017 -0.140221,0.385607 l -1.495685,1.121763 q -0.08179,0.07011 -0.222015,0.07011 -0.04674,0 -0.0818,-0.01168 -0.175275,-0.03506 -0.245385,-0.186961 l -3.260124,-5.935998 -3.026425,3.026423 0.619306,2.266898 q 0.05843,0.198645 -0.09348,0.362236 l -1.121763,1.121764 q -0.105166,0.105165 -0.268757,0.105165 h -0.02337 Q 19.727686,34.176569 19.62252,34.048034 L 17.414049,31.103405 14.46942,28.894932 q -0.128536,-0.08179 -0.151906,-0.268755 -0.01168,-0.151906 0.105166,-0.292127 l 1.121763,-1.133447 q 0.105165,-0.105165 0.268756,-0.105165 0.07011,0 0.09348,0.01168 L 18.173576,27.726424 21.2,24.7 15.264002,21.439875 q -0.163591,-0.09348 -0.198646,-0.280441 -0.02337,-0.186961 0.105165,-0.315497 l 1.495685,-1.495684 q 0.163591,-0.151906 0.350552,-0.09348 l 7.770549,1.857921 1.869605,-1.869607 q 0.888063,-0.888063 2.009827,-1.261983 1.121763,-0.373921 1.729385,0.14022 z"
   style="fill:#377dff;fill-opacity:1;stroke-width:0.011685" /><text
   xml:space="preserve"
   style="font-style:normal;font-variant:normal;font-weight:800;font-stretch:normal;font-size:32px;line-height:1.25;font-family:'Open Sans';-inkscape-font-specification:'Open Sans Ultra-Bold';letter-spacing:-2px;display:inline;fill:#0000ff;fill-opacity:1;stroke:none"
   x="53.189301"
   y="29.932812"
   id="text106"><tspan
     style="font-size:32px;fill:#ffffff;fill-opacity:1"
     sodipodi:role="line"
     id="tspan104"
     x="53.189301"
     y="29.932812">A320 Expert</tspan></text></svg>

<?xml version="1.0" encoding="UTF-8" standalone="no"?>
<svg
   xmlns:dc="http://purl.org/dc/elements/1.1/"
   xmlns:cc="http://creativecommons.org/ns#"
   xmlns:rdf="http://www.w3.org/1999/02/22-rdf-syntax-ns#"
   xmlns:svg="http://www.w3.org/2000/svg"
   xmlns="http://www.w3.org/2000/svg"
   xmlns:sodipodi="http://sodipodi.sourceforge.net/DTD/sodipodi-0.dtd"
   xmlns:inkscape="http://www.inkscape.org/namespaces/inkscape"
   version="1.1"
   id="Layer_1"
   x="0px"
   y="0px"
   viewBox="0 0 154.9 46.1"
   style="enable-background:new 0 0 154.9 46.1;"
   xml:space="preserve"
   sodipodi:docname="logo-white.svg"
   inkscape:version="1.0 (6e3e5246a0, 2020-05-07)"><metadata
   id="metadata1587"><rdf:RDF><cc:Work
       rdf:about=""><dc:format>image/svg+xml</dc:format><dc:type
         rdf:resource="http://purl.org/dc/dcmitype/StillImage" /></cc:Work></rdf:RDF></metadata><defs
   id="defs1585" /><sodipodi:namedview
   inkscape:document-rotation="0"
   pagecolor="#ffffff"
   bordercolor="#666666"
   borderopacity="1"
   objecttolerance="10"
   gridtolerance="10"
   guidetolerance="10"
   inkscape:pageopacity="0"
   inkscape:pageshadow="2"
   inkscape:window-width="1862"
   inkscape:window-height="1016"
   id="namedview1583"
   showgrid="false"
   inkscape:zoom="7.9535187"
   inkscape:cx="101.09149"
   inkscape:cy="23.049999"
   inkscape:window-x="0"
   inkscape:window-y="27"
   inkscape:window-maximized="1"
   inkscape:current-layer="Layer_1" />
<style
   type="text/css"
   id="style1562">
	.st0{fill:#FFFFFF;}
	.st1{opacity:0.65;fill:#E1E4EA;enable-background:new    ;}
	.st2{opacity:0.5;fill:#FFFFFF;enable-background:new    ;}
	.st3{opacity:0.7;fill:#FFFFFF;enable-background:new    ;}
	.st4{fill:#377DFF;}
</style>





<path
   class="st1"
   d="M23,41.1L23,41.1c-9.9,0-18-8-18-18l0,0c0-9.9,8-18,18-18h11.3c3.7,0,6.6,3,6.6,6.6v11.4  C41,33,32.9,41.1,23,41.1z"
   id="path1574" />
<path
   class="st2"
   d="M28,36L28,36c-9.9,0-18-8-18-18l0,0c0-9.9,8-18,18-18h11.3C43,0.1,46,3.1,46,6.7v11.4C46,28,38,36,28,36z"
   id="path1576" />
<path
   class="st3"
   d="M18,46.1L18,46.1c-10,0-18-8-18-18l0,0c0-9.9,8-18,18-18h11.3c3.7,0,6.6,3,6.6,6.6v11.4  C35.9,38.1,27.9,46.1,18,46.1z"
   id="path1578" />

<path
   id="path75"
   d="m 30.396128,18.121325 q 0.514142,0.607623 0.140221,1.729385 -0.373921,1.121764 -1.261984,2.009828 l -1.881292,1.881291 1.869607,8.132783 q 0.05842,0.222017 -0.140221,0.385607 l -1.495685,1.121763 q -0.08179,0.07011 -0.222015,0.07011 -0.04674,0 -0.0818,-0.01168 -0.175275,-0.03506 -0.245385,-0.186961 l -3.260124,-5.935998 -3.026425,3.026423 0.619306,2.266898 q 0.05843,0.198645 -0.09348,0.362236 l -1.121763,1.121764 q -0.105166,0.105165 -0.268757,0.105165 h -0.02337 Q 19.727686,34.176569 19.62252,34.048034 L 17.414049,31.103405 14.46942,28.894932 q -0.128536,-0.08179 -0.151906,-0.268755 -0.01168,-0.151906 0.105166,-0.292127 l 1.121763,-1.133447 q 0.105165,-0.105165 0.268756,-0.105165 0.07011,0 0.09348,0.01168 L 18.173576,27.726424 21.2,24.7 15.264002,21.439875 q -0.163591,-0.09348 -0.198646,-0.280441 -0.02337,-0.186961 0.105165,-0.315497 l 1.495685,-1.495684 q 0.163591,-0.151906 0.350552,-0.09348 l 7.770549,1.857921 1.869605,-1.869607 q 0.888063,-0.888063 2.009827,-1.261983 1.121763,-0.373921 1.729385,0.14022 z"
   style="fill:#377dff;stroke-width:0.011685;fill-opacity:1" /><text
   xml:space="preserve"
   style="font-style:normal;font-variant:normal;font-weight:800;font-stretch:normal;font-size:32px;line-height:1.25;font-family:'Open Sans';-inkscape-font-specification:'Open Sans Ultra-Bold';letter-spacing:-2px;display:inline;fill:#fcfcfd;fill-opacity:0.94902;stroke:none"
   x="53.189301"
   y="29.932812"
   id="text106"><tspan
     style="font-size:32px;fill:#fcfcfd;fill-opacity:0.94902"
     dx="0"
     sodipodi:role="line"
     id="tspan104"
     x="53.189301"
     y="29.932812">MyLog</tspan></text></svg>
